X: 1
T: Polska efter Jonny Boy
C: Jonas Olsson
M: 9/8
L: 1/8
R: polska
S: Fiddle Hell Online 2022-4-8 handout for Natalie Haas workshop
Z: 2022 John Chambers <jc:trillian.mit.edu>
K: Bm
"^A"|:\
"Bm"F3 B2c "A"d2e | "D"f3 (4f/e/f/^g/ "A"e2f | "G"d2 f2 d2 "F#m"c2A | "G"B2d cA2 "A"F2E |
"Bm"F3 B2c "A"d2e | "D"f3 (4f/e/f/^g/ "A"e2f | "G"d2 f2 d2 "F#m"c2A | cdc "Bm"B6 :|
"^B"|:\
"D"d2 f2 d2 "A"c2A | "Bm"B2d cA2 "A/C#"F3 | "D"d2 f2 d2 "A"c2A | "G"B2d (4c/d/c/A/ "F#m"F2E |
"Bm"F3 B2c "A"d2e | "D"f3 (4f/e/f/^g/ "A"e2f | "G"d2 f2 d2 "A"c2A | cdc "Bm"B6 :|
